svg/Pictogram/pictograms-aem-0050-keep_safe_distance_away_from_auger_area.svg

<?xml version="1.0" encoding="ISO-8859-1" standalone="yes"?>
<svg height="304.014" width="304.015">
  <metadata>
    <rdf:RDF xmlns:cc="http://web.resource.org/cc/" xmlns:dc="http://purl.org/dc/elements/1.1/" xmlns:rdf="http://www.w3.org/1999/02/22-rdf-syntax-ns#">
      <cc:Work rdf:about="">
        <dc:title></dc:title>
        <dc:description></dc:description>
        <dc:subject>
          <rdf:Bag>
            <rdf:li></rdf:li>
          </rdf:Bag>
        </dc:subject>
        <dc:publisher>
          <cc:Agent rdf:about="http://www.unece.org/trans/danger/publi/ghs/pictograms.html">
            <dc:title>Source: UNECE GHS of Classification and Labeling of Chemicals, Source: AEM Pictorial Database, Source: AEM Pictorial Database, Source: AEM Pictorial Database, Source: AEM Pictorial Database</dc:title>
          </cc:Agent>
        </dc:publisher>
        <dc:creator>
          <cc:Agent>
            <dc:title></dc:title>
          </cc:Agent>
        </dc:creator>
        <dc:rights>
          <cc:Agent>
            <dc:title></dc:title>
          </cc:Agent>
        </dc:rights>
        <dc:date></dc:date>
        <dc:format>image/svg+xml</dc:format>
        <dc:type rdf:resource="http://purl.org/dc/dcmitype/StillImage"/>
        <cc:license rdf:resource="http://en.wikipedia.org/wiki/Public_domain"/>
        <dc:language>en</dc:language>
      </cc:Work>
    </rdf:RDF>
  </metadata>
  <defs><marker id="ArrowEnd" markerHeight="3" markerUnits="strokeWidth" markerWidth="4" orient="auto" refX="0" refY="5" viewBox="0 0 10 10"><path d="M 0 0 L 10 5 L 0 10 z"/></marker><marker id="ArrowStart" markerHeight="3" markerUnits="strokeWidth" markerWidth="4" orient="auto" refX="10" refY="5" viewBox="0 0 10 10"><path d="M 10 0 L 0 5 L 10 10 z"/></marker> </defs>
  <g id="g2958" transform="matrix(1.3532768,0,0,1.3532781,-53.207834,-52.192858)">
    <path d="M 213.823 77.7994C 219.862 77.7994 226.187 72.2644 226.187 65.4364C 226.187 58.6084 220.651 53.0734 213.823 53.0734C 206.995 53.0734 201.46 58.6084 201.46 65.4364C 201.46 72.2644 206.995 77.7994 213.823 77.7994" style="stroke:none; fill-rule:evenodd; fill:#000000"/>
    <path d="M 217.058 143.483C 217.058 141.932 215.8 140.674 214.253 140.674C 212.702 140.674 211.444 141.932 211.444 143.483L 211.44 190.096C 211.44 193.827 208.417 196.85 204.69 196.85C 200.96 196.85 197.937 193.827 197.937 190.096L 197.937 97.4244C 197.937 95.8544 196.663 94.5814 195.093 94.5814C 193.519 94.5814 192.245 95.8544 192.245 97.4244L 192.245 135.237C 192.245 137.885 190.097 140.038 187.444 140.038C 184.792 140.038 182.644 137.885 182.644 135.237L 182.644 93.4094C 182.644 86.5454 188.202 80.9834 195.065 80.9834L 233.456 80.9834C 240.315 80.9834 245.878 86.5454 245.878 93.4094L 245.878 135.237C 245.878 137.885 243.73 140.038 241.077 140.038C 238.425 140.038 236.276 137.885 236.276 135.237L 236.276 97.4244C 236.276 95.8544 235.003 94.5814 233.429 94.5814C 231.858 94.5814 230.581 95.8544 230.581 97.4244L 230.581 190.096C 230.581 193.827 227.562 196.85 223.831 196.85C 220.101 196.85 217.081 193.827 217.081 190.096L 217.058 143.483" style="stroke:none; fill-rule:evenodd; fill:#000000"/>
    <path d="M 90.7144 250.932C 93.4724 251.248 96.6284 249.006 99.2224 230.397L 107.491 230.393C 108.87 240.206 111.331 250.452 115.624 250.94C 118.382 251.252 121.534 249.006 124.132 230.401L 132.644 230.401C 134.022 240.209 136.487 250.452 140.78 250.944C 143.534 251.256 146.69 249.01 149.288 230.401L 158.327 230.413L 158.331 210.131L 133.87 210.151C 132.491 200.334 130.026 190.084 125.733 189.596C 122.98 189.284 119.823 191.522 117.222 210.182L 108.722 210.155C 107.339 200.338 104.874 190.084 100.581 189.596C 97.8274 189.28 94.6714 191.514 92.0734 210.147L 83.8084 210.147C 82.4294 200.331 79.9644 190.077 75.6714 189.592C 72.9134 189.28 69.7614 191.514 67.1674 210.108L 58.1364 210.116L 58.1364 230.397L 82.5774 230.397C 83.9604 240.206 86.4254 250.448 90.7144 250.936" style="stroke:none; fill-rule:evenodd; fill:#000000"/>
    <path d="M 91.0504 247.463C 89.2574 246.604 86.9524 237.491 85.5774 226.452C 88.6014 229.045 91.8044 229.139 91.9994 229.139C 92.0224 229.143 92.2924 229.139 92.2924 229.139C 92.3664 229.139 92.4374 229.131 92.5114 229.12L 95.9054 229.124C 93.8194 244.549 91.4914 247.112 91.0504 247.463" style="stroke:none; fill-rule:evenodd; fill:#000000"/>
    <path d="M 115.964 247.467C 114.159 246.616 111.839 237.377 110.464 226.233C 113.562 229.045 116.94 229.143 117.144 229.147C 117.163 229.147 117.437 229.147 117.437 229.147C 117.519 229.143 117.601 229.135 117.683 229.12L 120.819 229.116C 118.71 244.733 116.417 247.139 115.964 247.467" style="stroke:none; fill-rule:evenodd; fill:#000000"/>
    <path d="M 141.116 247.471C 139.312 246.62 136.991 237.389 135.616 226.245C 138.71 229.049 142.085 229.147 142.284 229.151C 142.308 229.151 142.577 229.147 142.577 229.147C 142.655 229.147 142.73 229.139 142.8 229.124L 145.972 229.124C 143.862 244.733 141.569 247.143 141.116 247.471" style="stroke:none; fill-rule:evenodd; fill:#000000"/>
    <path d="M 154.339 214.096L 154.335 226.409L 142.425 226.409L 142.425 226.413L 142.3 226.413C 142.128 226.409 137.636 226.217 135.05 220.936C 135.026 220.666 134.999 220.397 134.976 220.124C 134.819 218.284 134.62 216.233 134.374 214.096L 154.335 214.096" style="stroke:none; fill-rule:evenodd; fill:#000000"/>
    <path d="M 125.397 193.069C 127.194 193.92 129.511 203.112 130.886 214.221C 128.159 211.756 125.233 211.397 124.437 211.342L 124.44 211.338L 124.366 211.338C 124.296 211.334 124.245 211.334 124.226 211.334L 123.952 211.331C 123.917 211.331 123.886 211.334 123.851 211.338L 120.55 211.338C 122.659 195.791 124.94 193.397 125.394 193.065" style="stroke:none; fill-rule:evenodd; fill:#000000"/>
    <path d="M 118.8 211.338L 118.804 211.342L 118.8 211.342L 118.8 211.338" style="stroke:none; fill-rule:evenodd; fill:#000000"/>
    <path d="M 124.21 214.096L 124.21 214.069C 124.511 214.081 128.894 214.327 131.452 219.518C 131.48 219.819 131.507 220.12 131.53 220.416C 131.687 222.248 131.886 224.284 132.132 226.416L 117.151 226.405L 117.151 226.413C 116.944 226.405 112.476 226.198 109.897 220.916C 109.874 220.651 109.851 220.385 109.827 220.12C 109.671 218.28 109.472 216.233 109.222 214.092L 124.206 214.096" style="stroke:none; fill-rule:evenodd; fill:#000000"/>
    <path d="M 100.241 193.065C 102.042 193.916 104.358 203.104 105.733 214.209C 102.647 211.424 99.2884 211.331 99.0854 211.327C 99.0654 211.327 98.7964 211.327 98.7964 211.327C 98.7694 211.327 98.7454 211.334 98.7224 211.334L 95.3974 211.334C 97.5074 195.788 99.7924 193.393 100.245 193.065" style="stroke:none; fill-rule:evenodd; fill:#000000"/>
    <path d="M 93.6554 211.334L 93.6594 211.334L 93.6554 211.334L 93.6554 211.334" style="stroke:none; fill-rule:evenodd; fill:#000000"/>
    <path d="M 98.8784 214.092L 98.8784 214.061L 99.0734 214.061C 99.2454 214.069 103.71 214.256 106.304 219.502C 106.327 219.803 106.358 220.108 106.382 220.413C 106.538 222.241 106.737 224.28 106.98 226.409L 92.3154 226.409C 92.3044 226.409 92.2964 226.409 92.2844 226.409L 92.0154 226.409C 91.8474 226.405 87.6474 226.213 85.0304 221.42C 84.9874 220.987 84.9524 220.553 84.9134 220.116C 84.7574 218.276 84.5584 216.225 84.3124 214.084L 98.8784 214.092" style="stroke:none; fill-rule:evenodd; fill:#000000"/>
    <path d="M 75.3394 193.065C 77.1474 193.932 79.4804 203.248 80.8514 214.459C 77.6944 211.44 74.1514 211.327 73.9444 211.323C 73.9214 211.323 73.6514 211.323 73.6514 211.323C 73.6204 211.323 73.5974 211.331 73.5654 211.334L 70.4874 211.334C 72.5694 195.956 74.8974 193.413 75.3394 193.065" style="stroke:none; fill-rule:evenodd; fill:#000000"/>
    <path d="M 62.1244 226.397L 62.1284 214.088L 73.6014 214.088L 73.6014 214.053C 73.6204 214.053 73.6404 214.057 73.6594 214.057L 73.9294 214.057C 74.1084 214.065 78.9134 214.28 81.4444 220.139C 81.4524 220.229 81.4644 220.319 81.4724 220.409C 81.6284 222.237 81.8234 224.276 82.0694 226.405L 62.1284 226.397" style="stroke:none; fill-rule:evenodd; fill:#000000"/>
    <path d="M 118.214 161.131L 117.05 183.967L 139.882 182.733L 149.296 173.288L 133.183 174.159L 160.409 146.842L 159.589 162.959L 169.003 153.514L 170.163 130.678L 147.331 131.916L 137.917 141.366L 154.034 140.491L 126.808 167.807L 127.624 151.69L 118.214 161.135M 117.05 183.967L 118.214 161.131L 117.05 183.967" style="stroke:none; fill-rule:evenodd; fill:#000000"/>
    <path d="M 118.214 161.131L 117.05 183.967L 139.882 182.733L 149.296 173.288L 133.183 174.159L 160.409 146.842L 159.589 162.959L 169.003 153.514L 170.163 130.678L 147.331 131.916L 137.917 141.366L 154.034 140.491L 126.808 167.807L 127.624 151.69L 118.214 161.135L 118.214 161.131zM 117.05 183.967L 118.214 161.131" style="stroke:#000000; stroke-width:0.10000000000000001; stroke-linejoin:bevel; fill:none"/>
    <path d="M 29.6204 265.393L 2.62042 265.393" style="stroke:#000000; stroke-width:0.5; fill:none"/>
    <path d="M 38.6204 274.393L 38.6204 301.393" style="stroke:#000000; stroke-width:0.5; fill:none"/>
    <path d="M 29.6204 38.6204L 2.62042 38.6204" style="stroke:#000000; stroke-width:0.5; fill:none"/>
    <path d="M 38.6204 29.6204L 38.6204 2.62042" style="stroke:#000000; stroke-width:0.5; fill:none"/>
    <path d="M 274.394 38.6204L 301.394 38.6204" style="stroke:#000000; stroke-width:0.5; fill:none"/>
    <path d="M 265.394 29.6204L 265.394 2.62042" style="stroke:#000000; stroke-width:0.5; fill:none"/>
    <path d="M 274.394 265.393L 301.394 265.393" style="stroke:#000000; stroke-width:0.5; fill:none"/>
    <path d="M 265.394 274.393L 265.394 301.393" style="stroke:#000000; stroke-width:0.5; fill:none"/>
  </g>
</svg>

<svg viewBox="0 0 304.01 304.01"><g transform="matrix(1.35328 0 0 1.35328-53.21-52.19)"><g fill-rule="evenodd"><path d="m213.82 77.8c6.04 0 12.364-5.535 12.364-12.363 0-6.828-5.536-12.363-12.364-12.363-6.828 0-12.363 5.535-12.363 12.363 0 6.828 5.535 12.363 12.363 12.363"/><path d="m217.06 143.48c0-1.551-1.258-2.809-2.805-2.809-1.551 0-2.809 1.258-2.809 2.809l-.004 46.613c0 3.731-3.02 6.754-6.75 6.754-3.73 0-6.753-3.02-6.753-6.754v-92.67c0-1.57-1.274-2.843-2.844-2.843-1.574 0-2.848 1.273-2.848 2.843v37.813c0 2.648-2.148 4.801-4.801 4.801-2.652 0-4.8-2.153-4.8-4.801v-41.828c0-6.864 5.558-12.426 12.421-12.426h38.39c6.859 0 12.422 5.562 12.422 12.426v41.828c0 2.648-2.148 4.801-4.801 4.801-2.652 0-4.801-2.153-4.801-4.801v-37.813c0-1.57-1.273-2.843-2.847-2.843-1.571 0-2.848 1.273-2.848 2.843v92.67c0 3.731-3.02 6.754-6.75 6.754-3.73 0-6.75-3.02-6.75-6.754l-.023-46.613"/><path d="m90.71 250.93c2.758.316 5.914-1.926 8.508-20.535l8.269-.004c1.379 9.813 3.84 20.06 8.133 20.547 2.758.312 5.91-1.934 8.508-20.539h8.512c1.378 9.808 3.843 20.05 8.136 20.543 2.754.312 5.91-1.934 8.508-20.543l9.04.012.004-20.282-24.461.02c-1.379-9.817-3.844-20.07-8.137-20.555-2.753-.312-5.91 1.926-8.511 20.586l-8.5-.027c-1.383-9.817-3.848-20.07-8.141-20.559-2.754-.316-5.91 1.918-8.508 20.551h-8.265c-1.379-9.816-3.844-20.07-8.137-20.555-2.758-.312-5.91 1.922-8.504 20.516l-9.03.008v20.281h24.441c1.383 9.809 3.848 20.05 8.137 20.539"/><path d="m91.05 247.46c-1.793-.859-4.098-9.972-5.473-21.01 3.02 2.593 6.227 2.687 6.422 2.687.023.004.293 0 .293 0 .074 0 .145-.008.219-.019l3.394.004c-2.086 15.425-4.414 17.988-4.855 18.339"/><path d="m115.96 247.47c-1.805-.851-4.125-10.09-5.5-21.234 3.098 2.812 6.476 2.91 6.68 2.914.019 0 .293 0 .293 0 .082-.004.164-.012.246-.027l3.136-.004c-2.109 15.617-4.402 18.02-4.855 18.351"/><path d="m141.12 247.47c-1.804-.851-4.125-10.08-5.5-21.23 3.094 2.804 6.469 2.902 6.668 2.906.024 0 .293-.004.293-.004.078 0 .153-.008.223-.023h3.172c-2.11 15.609-4.403 18.02-4.856 18.347"/><path d="m154.34 214.1l-.004 12.313h-11.91v.004h-.125c-.172-.004-4.664-.196-7.25-5.477-.024-.27-.051-.539-.074-.812-.157-1.84-.356-3.891-.602-6.03h19.961"/><path d="m125.4 193.07c1.797.851 4.114 10.04 5.489 21.15-2.727-2.465-5.653-2.824-6.449-2.879l.003-.004h-.074c-.07-.004-.121-.004-.14-.004l-.274-.003c-.035 0-.066.003-.101.007h-3.301c2.109-15.547 4.39-17.941 4.844-18.273"/><path d="m118.8 211.34l.004.004h-.004v-.004"/><path d="m124.21 214.1v-.027c.301.012 4.684.258 7.242 5.449.028.301.055.602.078.898.157 1.832.356 3.868.602 6l-14.981-.011v.008c-.207-.008-4.675-.215-7.254-5.497-.023-.265-.046-.531-.07-.796-.156-1.84-.355-3.887-.605-6.03l14.984.004"/><path d="m100.24 193.06c1.801.851 4.117 10.04 5.492 21.14-3.086-2.785-6.445-2.878-6.648-2.882-.02 0-.289 0-.289 0-.027 0-.051.007-.074.007h-3.325c2.11-15.546 4.395-17.941 4.848-18.269"/><path d="m93.66 211.33h.004-.004"/><path d="m98.88 214.09v-.031h.195c.172.008 4.637.195 7.231 5.441.023.301.054.606.078.911.156 1.828.355 3.867.598 5.996h-14.665c-.011 0-.019 0-.031 0h-.269c-.168-.004-4.368-.196-6.985-4.989-.043-.433-.078-.867-.117-1.304-.156-1.84-.355-3.891-.601-6.03l14.566.008"/><path d="m75.34 193.06c1.808.867 4.141 10.183 5.512 21.394-3.157-3.02-6.7-3.132-6.907-3.136-.023 0-.293 0-.293 0-.031 0-.054.008-.086.011h-3.078c2.082-15.378 4.41-17.921 4.852-18.269"/><path d="m62.12 226.4l.004-12.309h11.473v-.035c.019 0 .039.004.058.004h.27c.179.008 4.984.223 7.515 6.082.008.09.02.18.028.27.156 1.828.351 3.867.597 5.996l-19.941-.008"/><path d="m118.21 161.13l-1.164 22.836 22.832-1.234 9.414-9.445-16.11.871 27.23-27.317-.82 16.12 9.414-9.445 1.16-22.836-22.832 1.238-9.414 9.45 16.12-.875-27.23 27.316.816-16.12-9.41 9.445m-1.164 22.832l1.164-22.836-1.164 22.836"/></g><path d="m118.21 161.13l-1.164 22.836 22.832-1.234 9.414-9.445-16.11.871 27.23-27.317-.82 16.12 9.414-9.445 1.16-22.836-22.832 1.238-9.414 9.45 16.12-.875-27.23 27.316.816-16.12-9.41 9.445v-.004zm-1.164 22.836l1.164-22.836" fill="none" stroke="#000" stroke-linejoin="bevel" stroke-width=".1"/></g></svg>
